packages/core/src/svgs/kasta.svg

<svg width="24" height="24" viewBox="0 0 24 24" fill="none" xmlns="http://www.w3.org/2000/svg">
<g clip-path="url(#clip0_31_12256)">
<path d="M0 0H24V24H0V0Z" fill="#621EFD"/>
<path d="M4.28564 6.85693H5.99993V11.9569L8.32279 9.42836H10.2856L7.53422 12.4284L10.2856 15.4284H8.32279L5.99993 12.8955V15.4284H4.28564V6.85693Z" fill="#FEFDFF"/>
<path d="M19.2857 15.8571C19.9958 15.8571 20.5714 15.2814 20.5714 14.5714C20.5714 13.8613 19.9958 13.2856 19.2857 13.2856C18.5756 13.2856 18 13.8613 18 14.5714C18 15.2814 18.5756 15.8571 19.2857 15.8571Z" fill="#FEFDFF"/>
<path fill-rule="evenodd" clip-rule="evenodd" d="M17.1429 15.8573V12.643C17.1429 11.5716 16.5258 9.42871 14.0572 9.42871C11.3015 9.42871 10.7144 11.8673 10.7144 12.643C10.7144 13.5687 11.2286 15.8573 13.6158 15.8573C15.0129 15.8573 15.3901 14.8244 15.4286 14.6744V15.8573H17.1429ZM13.9286 14.143C14.3265 14.143 14.708 13.985 14.9893 13.7037C15.2706 13.4224 15.4286 13.0408 15.4286 12.643C15.4286 12.2452 15.2706 11.8636 14.9893 11.5823C14.708 11.301 14.3265 11.143 13.9286 11.143C13.5308 11.143 13.1493 11.301 12.868 11.5823C12.5867 11.8636 12.4286 12.2452 12.4286 12.643C12.4286 13.0408 12.5867 13.4224 12.868 13.7037C13.1493 13.985 13.5308 14.143 13.9286 14.143Z" fill="#FEFDFF"/>
</g>
<defs>
<clipPath id="clip0_31_12256">
<rect width="24" height="24" fill="white"/>
</clipPath>
</defs>
</svg>

<svg xmlns="http://www.w3.org/2000/svg" width="24" height="24" fill="none" viewBox="0 0 24 24"><g clip-path="url(#a)"><path fill="#621EFD" d="M0 0h24v24H0z"/><path fill="#FEFDFF" d="M4.286 6.857H6v5.1l2.323-2.529h1.963l-2.752 3 2.752 3H8.323L6 12.895v2.533H4.286zM19.286 15.857a1.286 1.286 0 1 0 0-2.571 1.286 1.286 0 0 0 0 2.571"/><path fill="#FEFDFF" fill-rule="evenodd" d="M17.143 15.857v-3.214c0-1.071-.617-3.214-3.086-3.214-2.755 0-3.343 2.438-3.343 3.214 0 .926.515 3.214 2.902 3.214 1.397 0 1.774-1.033 1.813-1.183v1.183zm-3.214-1.714a1.5 1.5 0 1 0 0-3 1.5 1.5 0 0 0 0 3" clip-rule="evenodd"/></g><defs><clipPath id="a"><path fill="#fff" d="M0 0h24v24H0z"/></clipPath></defs></svg>
